X:175
T:Cuckold Come Out Of The Amrey
Z:Jack Campin, http://www.campin.me.uk/
F:Jack Campin's Nine-Note Tunebook
% last edit 03-02-2013
Z:Peter Dunk 20 July 2008
M:4/4
L:1/16
Q:1/4=110
K:EDor
EFGE G3A  B3A  B2d2|D2D2 F3G  AFED FGAF|
EFGE G3A  B3A  B2d2|A2GF d2F2 E4   B4 :|
d3B  G2d2 B2G2 BcdB|AGFE D2A2 F2D2 FGAF|
d3B  G2d2 B2G2 BcdB|A2GF d2F2 E4   B4 :|
EFGE GABG BcdB GABG|DEFD FGAF AFED FGAF|
EFGE GABG BcdB GABG|A2GF d2F2 E4   B4 :|
dcBc dcBc dcBA GABG|AGFG AGFG AGFE DEFD|
dcBc dcBc dcBA GABG|A2GF d2F2 E4   B4 :|
GBdB GBdB GBdB GBdB|FAdA FAdA FAdA FAdA|
GBdB GBdB GBdB GBdB|FAdA d2F2 E4   B4 :|
E2BA G2BA E2BA G2BA|D2BA F2BA D2BA F2BA|
E2BA G2BA E2BA G2BA|FGAF d2F2 E4   B4 :|
d2G2 B2d2 G2Bc d2G2|d2F2 A2d2 D2EF A2Bc|
d2G2 B2d2 G2Bc d2G2|A2GF d2F2 E4   B4 :|


% == Irish songs ============================================================

